phoenix/static/src/images/phoenix-logo-red.svg

<?xml version="1.0" encoding="UTF-8"?>
<svg width="420px" height="75px" viewBox="0 0 420 75" version="1.1" xmlns="http://www.w3.org/2000/svg" xmlns:xlink="http://www.w3.org/1999/xlink">
    <!-- Generator: Sketch 45 (43475) - http://www.bohemiancoding.com/sketch -->
    <title>Slice</title>
    <desc>Created with Sketch.</desc>
    <defs></defs>
    <g id="Page-1" stroke="none" stroke-width="1" fill="none" fill-rule="evenodd">
        <g id="LOGOBLACKRED" transform="translate(0, 0)" fill-rule="nonzero">
            <g id="g10" transform="translate(209.500000, 36.000000) scale(-1, 1) rotate(-180.000000) translate(-209.500000, -36.000000) ">
                <g id="g14" transform="translate(-0.000000, 0.333333)">
                    <g id="g20" transform="translate(0.136667, 1.912800)" fill="#ED1C24">
                        <path d="M42.6666656,58.9999985 C42.6666656,58.0493319 42.1973323,57.6186652 41.0826656,57.6186652 C37.6773324,57.6186652 34.3933325,57.8759985 30.9306659,57.8759985 L30.8706659,55.4573319 L30.8133326,43.8786655 L30.6946659,30.7466659 L30.6946659,14.2439996 C30.7533326,7.24399979 30.7533326,3.09733323 30.7533326,1.80133326 C30.7533326,1.45466661 30.7533326,0.935999952 30.8133326,0.246666635 L12.4426664,0.246666635 C12.4426664,5.51733317 12.501333,10.6999997 12.5599997,15.9719996 L12.6186664,35.4986658 L12.501333,47.5946655 L12.4426664,57.8759985 C8.97999978,57.8759985 5.45866653,57.5319985 1.99599995,57.5319985 C0.881333311,57.5319985 0.470666655,58.0493319 0.470666655,59.0866652 C0.470666655,60.2959985 0.881333311,60.7279985 2.05599995,60.7279985 L2.81733326,60.8146651 L34.3933325,60.8146651 L39.791999,60.8146651 L40.9653323,60.7279985 C42.1973323,60.7279985 42.6666656,60.2959985 42.6666656,58.9999985" id="path22"></path>
                    </g>
                    <g id="g24" transform="translate(44.711599, 2.158800)" fill="#ED1C24">
                        <path d="M40.3333323,0 L24.8999994,0 C24.8999994,4.75199988 24.9573327,9.5053331 24.9573327,14.257333 L25.0173327,27.3893326 L24.9573327,35.8573324 C24.8999994,43.3746656 24.8413327,43.6333322 22.6093327,43.6333322 C20.5559995,43.6333322 18.6199995,42.2506656 15.5679996,38.6226657 L15.5093329,34.8199991 L15.5093329,22.4653328 L15.6253329,8.1199998 L15.6853329,0 L0.19199997,0 L0.249333302,18.6626662 L0.249333302,33.9559992 L0.249333302,45.7066655 L0.19199997,58.4093319 L0.19199997,60.5693318 L15.5679996,60.5693318 C15.5679996,55.0386653 15.5679996,49.4213321 15.5093329,43.8053322 L15.5679996,42.0786656 C19.6759995,46.3973322 24.0773327,49.6826654 29.2426659,49.6826654 C34.3479991,49.6826654 38.3386657,46.3973322 39.511999,41.2146656 C40.159999,38.0173324 40.2773323,36.6333324 40.2773323,30.4999992 C40.2773323,25.4893327 40.159999,20.5653328 40.159999,15.6386663 C40.159999,10.4546664 40.3333323,5.18266654 40.3333323,0" id="path26"></path>
                    </g>
                    <g id="g28" transform="translate(87.842398, 0.820266)" fill="#ED1C24">
                        <path d="M22.6666661,26.9999993 L22.6666661,39.9613323 C22.5506661,45.3173322 22.8426661,48.2546654 18.4999995,48.2546654 C15.5066663,48.2546654 14.9786663,47.0453321 14.9786663,39.9613323 L14.9786663,26.9999993 C16.2106663,26.9133326 17.3266662,26.8279993 18.5586662,26.8279993 C19.9666662,26.8279993 21.3173328,26.8279993 22.6666661,26.9999993 M35.1666658,24.234666 C28.3599993,24.234666 21.6693328,24.1493327 14.9786663,24.1493327 L14.9786663,10.3226664 C14.9786663,6.52133315 14.9786663,3.23999989 18.1479995,3.23999989 C27.5373326,3.23999989 31.7053325,16.3719996 33.0546658,16.3719996 C33.7599992,16.3719996 34.2279991,15.5079996 34.2279991,14.3853329 C34.2279991,13.0026663 33.2333325,10.7559997 31.7053325,8.59599976 C28.006666,3.58533322 22.6666661,0.302666634 18.0306662,0.302666634 C8.58266645,0.302666634 0.894666644,11.705333 0.894666644,25.530666 C0.894666644,39.355999 8.64133312,50.933332 17.9133329,50.933332 C28.3039993,50.933332 35.1666658,39.0093323 35.1666658,24.234666" id="path30"></path>
                    </g>
                    <g id="g32" transform="translate(144.333330, 1.411466)" fill="#ED1C24">
                        <path d="M39.999999,35.9999991 C39.999999,43.1706656 36.7106657,51.2933321 32.4866659,54.6626653 C28.4373326,58.0333319 23.2146661,58.2919985 18.6959995,58.2919985 L18.6959995,55.3546653 L18.6359995,39.887999 L18.5786662,26.494666 C18.5786662,22.5199994 18.5786662,18.6319995 18.6359995,14.6586663 C20.1613328,13.9666663 22.3333328,13.6199997 24.798666,13.6199997 C33.4839992,13.6199997 39.999999,23.2973328 39.999999,35.9999991 M41.9946656,35.7399991 C41.9946656,21.3986661 34.5413325,10.8546664 24.3279994,10.8546664 C22.4506661,10.8546664 20.5119995,11.2893331 18.6359995,11.633333 C18.6359995,8.00533313 18.6959995,4.37733322 18.6959995,0.747999981 L0.326666659,0.747999981 L0.326666659,3.42399991 L0.443999989,20.9653328 L0.501333321,36.7773324 L0.38399999,49.4786654 L0.326666659,59.5013318 L0.326666659,61.3159985 L14.0586663,61.3159985 C20.2213328,61.3159985 24.858666,60.8839985 28.318666,59.9346652 C36.0079991,57.7733319 41.9946656,47.4039988 41.9946656,35.7399991" id="path34"></path>
                    </g>
                    <g id="g36" transform="translate(189.321595, 2.158800)" fill="#ED1C24">
                        <path d="M40.3333323,0 L24.8973327,0 C24.8973327,4.75199988 24.9573327,9.5053331 24.9573327,14.257333 L25.014666,27.3893326 L24.9573327,35.8573324 C24.8973327,43.3746656 24.838666,43.6333322 22.6093327,43.6333322 C20.5559995,43.6333322 18.6186662,42.2506656 15.5666663,38.6226657 L15.5066663,34.8199991 L15.5066663,22.4653328 L15.6253329,8.1199998 L15.6839996,0 L0.189333304,0 L0.249333302,18.6626662 L0.249333302,33.9559992 L0.249333302,45.7066655 L0.189333304,58.4093319 L0.189333304,60.5693318 L15.5666663,60.5693318 C15.5666663,55.0386653 15.5666663,49.4213321 15.5066663,43.8053322 L15.5666663,42.0786656 C19.6746661,46.3973322 24.074666,49.6826654 29.2399992,49.6826654 C34.3453324,49.6826654 38.3373323,46.3973322 39.5093323,41.2146656 C40.155999,38.0173324 40.2746656,36.6333324 40.2746656,30.4999992 C40.2746656,25.4893327 40.155999,20.5653328 40.155999,15.6386663 C40.155999,10.4546664 40.3333323,5.18266654 40.3333323,0" id="path38"></path>
                    </g>
                    <g id="g40" transform="translate(232.407594, 1.018266)" fill="#ED1C24">
                        <path d="M33.3333325,25.3333327 C33.3333325,37.7746657 26.5853327,47.9719988 18.2519995,47.9719988 C18.0746662,47.9719988 17.7799996,47.9719988 17.1359996,47.8839988 L17.0786662,3.12799992 C17.6626662,3.12799992 18.0173329,3.04133326 18.2519995,3.04133326 C26.702666,3.04133326 33.3333325,12.805333 33.3333325,25.3333327 M35.2693325,25.418666 C35.2693325,11.2479997 27.6399993,0.103999997 17.8413329,0.103999997 C8.50799979,0.103999997 0.935999977,11.5946664 0.935999977,25.5079994 C0.935999977,39.4173323 8.62533312,50.7359987 18.1919995,50.7359987 C27.5239993,50.7359987 35.2693325,39.243999 35.2693325,25.418666" id="path42"></path>
                    </g>
                    <g id="g44" transform="translate(270.214793, 0.820266)" fill="#ED1C24">
                        <path d="M22.6666661,26.9999993 L22.6666661,39.9613323 C22.5493328,45.3173322 22.8439994,48.2546654 18.5013329,48.2546654 C15.5066663,48.2546654 14.9799996,47.0453321 14.9799996,39.9613323 L14.9799996,26.9999993 C16.2106663,26.9133326 17.3279996,26.8279993 18.5586662,26.8279993 C19.9693328,26.8279993 21.3173328,26.8279993 22.6666661,26.9999993 M35.1666658,24.234666 C28.3599993,24.234666 21.6706661,24.1493327 14.9799996,24.1493327 L14.9799996,10.3226664 C14.9799996,6.52133315 14.9799996,3.23999989 18.1466662,3.23999989 C27.538666,3.23999989 31.7053325,16.3719996 33.0559992,16.3719996 C33.7599992,16.3719996 34.2306658,15.5079996 34.2306658,14.3853329 C34.2306658,13.0026663 33.2333325,10.7559997 31.7053325,8.59599976 C28.0079993,3.58533322 22.6666661,0.302666634 18.0306662,0.302666634 C8.58133312,0.302666634 0.893333311,11.705333 0.893333311,25.530666 C0.893333311,39.355999 8.63999978,50.933332 17.9146662,50.933332 C28.3013326,50.933332 35.1666658,39.0093323 35.1666658,24.234666" id="path46"></path>
                    </g>
                    <g id="g48" transform="translate(308.912126, 2.158800)" fill="#ED1C24">
                        <path d="M39.999999,0 L24.682666,0 C24.7413327,4.0599999 24.7413327,8.29466646 24.8013327,12.3559997 L24.8613327,21.4266661 C24.8613327,27.4733326 24.8013327,33.5239992 24.8013327,39.659999 C24.8013327,42.5093323 24.0986661,43.7199989 22.3946661,43.7199989 C20.4573328,43.7199989 18.1106662,41.991999 15.4679996,38.707999 L15.4679996,36.8946657 L15.4119996,24.3666661 C15.3519996,19.6146662 15.3519996,14.8626663 15.3519996,10.1066664 C15.3519996,6.73999983 15.3519996,3.36933325 15.4679996,-2.36847573e-15 L0.093333331,0 C0.093333331,9.76266642 0.27066666,19.6146662 0.27066666,29.3773326 C0.27066666,35.7719991 0.093333331,41.991999 0.093333331,48.4719988 L15.4679996,48.4719988 L15.4679996,42.2506656 C20.3999995,47.4359988 24.5666661,49.6826654 29.0853326,49.6826654 C34.4266658,49.6826654 38.5333324,45.8813322 39.5306657,40.0053323 C39.943999,37.3253324 39.999999,36.2026658 39.999999,30.8466659 C39.999999,24.6253327 39.943999,18.2319995 39.943999,12.0106664 C39.943999,7.94933313 39.943999,3.97333323 39.999999,0" id="path50"></path>
                    </g>
                    <g id="g52" transform="translate(352.789058, 1.411466)" fill="#ED1C24">
                        <path d="M15.9999996,0.430981769 L0.566666653,0.430981769 C0.566666653,11.7840633 0.801333313,23.0410747 0.801333313,34.3941562 C0.801333313,41.0325986 0.685333316,47.574971 0.685333316,54.4043527 L15.9999996,54.4043527 L15.9999996,45.1696164 L15.9413329,33.2401144 L15.8839996,19.8671595 L15.8839996,8.99442838 C15.9413329,6.20479348 15.9999996,3.22181754 15.9999996,0.430981769" id="path54"></path>
                    </g>
                    <g id="g56" transform="translate(352.963591, 59.314398)" fill="#ED1C24">
                        <path d="M15.9999996,5.3333332 C15.9999996,2.06266662 13.0079997,0.0559999986 8.08266646,0.0559999986 C3.03333326,0.0559999986 0.510666654,1.91466662 0.510666654,5.48266653 C0.510666654,8.82666645 3.20799992,10.6853331 8.02133313,10.6853331 C13.3039997,10.6853331 15.9999996,8.90133311 15.9999996,5.3333332" id="path58"></path>
                    </g>
                    <g id="g60" transform="translate(372.544257, 0.825466)" fill="#ED1C24">
                        <path d="M45.3333322,1.3333333 L25.498666,1.3333333 L15.8133329,21.0319995 C12.117333,15.5026663 8.47999979,9.80133309 5.30799987,3.58133324 C3.72533324,0.814666646 3.42933325,0.297333326 2.90266659,0.297333326 C2.08266661,0.297333326 1.19999997,1.41866663 1.19999997,2.62799993 C1.19999997,3.31999992 1.66933329,4.01066657 3.37199992,6.51599984 C7.30533315,11.7879997 10.9999997,17.5759996 14.521333,23.4519994 C10.2973331,32.4386659 6.01199985,41.855999 0.730666648,49.8053321 L20.3306662,49.8053321 C22.6813328,43.9306656 25.8493327,38.0546657 28.490666,32.5239992 C31.7186659,37.7079991 34.9453325,42.8933323 37.8813324,48.4239988 C38.9946657,50.4986654 39.3493323,50.9279987 39.875999,50.9279987 C40.579999,50.9279987 41.4613323,49.8906654 41.4613323,48.7693321 C41.4613323,48.0773321 41.1093323,47.2999988 39.8186657,45.5706655 C36.2959991,40.9066656 33.0106658,35.4626658 29.7239993,30.2786659 C34.5333325,20.2559995 39.463999,9.97333308 45.3333322,1.3333333" id="path62"></path>
                    </g>
                </g>
            </g>
        </g>
    </g>
</svg>

<?xml version="1.0" encoding="UTF-8"?>
<svg version="1.1" viewBox="0 0 420 75" xmlns="http://www.w3.org/2000/svg">
<title>The Phoenix</title>
<g fill="none" fill-rule="evenodd">
<g transform="translate(0)" fill-rule="nonzero">
<g transform="translate(209.5 36) scale(-1 1) rotate(180) translate(-209.5 -36)">
<g transform="translate(0 .33333)" fill="#ED1C24">
<g transform="translate(.13667 1.9128)">
<path d="m42.667 59c0-0.95067-0.46933-1.3813-1.584-1.3813-3.4053 0-6.6893 0.25733-10.152 0.25733l-0.06-2.4187-0.057333-11.579-0.11867-13.132v-16.503c0.058667-7 0.058667-11.147 0.058667-12.443 0-0.34667 0-0.86533 0.06-1.5547h-18.371c0 5.2707 0.058667 10.453 0.11733 15.725l0.058667 19.527-0.11733 12.096-0.058667 10.281c-3.4627 0-6.984-0.344-10.447-0.344-1.1147 0-1.5253 0.51733-1.5253 1.5547 0 1.2093 0.41067 1.6413 1.5853 1.6413l0.76133 0.086667h31.576 5.3987l1.1733-0.086667c1.232 0 1.7013-0.432 1.7013-1.728"/>
</g>
<g transform="translate(44.712 2.1588)">
<path d="m40.333 0h-15.433c0 4.752 0.057333 9.5053 0.057333 14.257l0.06 13.132-0.06 8.468c-0.057333 7.5173-0.116 7.776-2.348 7.776-2.0533 0-3.9893-1.3827-7.0413-5.0107l-0.058667-3.8027v-12.355l0.116-14.345 0.06-8.12h-15.493l0.057333 18.663v15.293 11.751l-0.057333 12.703v2.16h15.376c0-5.5307 0-11.148-0.058667-16.764l0.058667-1.7267c4.108 4.3187 8.5093 7.604 13.675 7.604 5.1053 0 9.096-3.2853 10.269-8.468 0.648-3.1973 0.76533-4.5813 0.76533-10.715 0-5.0107-0.11733-9.9347-0.11733-14.861 0-5.184 0.17333-10.456 0.17333-15.639"/>
</g>
<g transform="translate(87.842 .82027)">
<path d="m22.667 27v12.961c-0.116 5.356 0.176 8.2933-4.1667 8.2933-2.9933 0-3.5213-1.2093-3.5213-8.2933v-12.961c1.232-0.086667 2.348-0.172 3.58-0.172 1.408 0 2.7587 0 4.108 0.172m12.5-2.7653c-6.8067 0-13.497-0.085333-20.188-0.085333v-13.827c0-3.8013 0-7.0827 3.1693-7.0827 9.3893 0 13.557 13.132 14.907 13.132 0.70533 0 1.1733-0.864 1.1733-1.9867 0-1.3827-0.99467-3.6293-2.5227-5.7893-3.6987-5.0107-9.0387-8.2933-13.675-8.2933-9.448 0-17.136 11.403-17.136 25.228s7.7467 25.403 17.019 25.403c10.391 0 17.253-11.924 17.253-26.699"/>
</g>
<g transform="translate(144.33 1.4115)">
<path d="m40 36c0 7.1707-3.2893 15.293-7.5133 18.663-4.0493 3.3707-9.272 3.6293-13.791 3.6293v-2.9373l-0.06-15.467-0.057333-13.393c0-3.9747 0-7.8627 0.057333-11.836 1.5253-0.692 3.6973-1.0387 6.1627-1.0387 8.6853 0 15.201 9.6773 15.201 22.38m1.9947-0.26c0-14.341-7.4533-24.885-17.667-24.885-1.8773 0-3.816 0.43467-5.692 0.77867 0-3.628 0.06-7.256 0.06-10.885h-18.369v2.676l0.11733 17.541 0.057333 15.812-0.11733 12.701-0.057333 10.023v1.8147h13.732c6.1627 0 10.8-0.432 14.26-1.3813 7.6893-2.1613 13.676-12.531 13.676-24.195"/>
</g>
<g transform="translate(189.32 2.1588)">
<path d="m40.333 0h-15.436c0 4.752 0.06 9.5053 0.06 14.257l0.057333 13.132-0.057333 8.468c-0.06 7.5173-0.11867 7.776-2.348 7.776-2.0533 0-3.9907-1.3827-7.0427-5.0107l-0.06-3.8027v-12.355l0.11867-14.345 0.058667-8.12h-15.495l0.06 18.663v15.293 11.751l-0.06 12.703v2.16h15.377c0-5.5307 0-11.148-0.06-16.764l0.06-1.7267c4.108 4.3187 8.508 7.604 13.673 7.604 5.1053 0 9.0973-3.2853 10.269-8.468 0.64667-3.1973 0.76533-4.5813 0.76533-10.715 0-5.0107-0.11867-9.9347-0.11867-14.861 0-5.184 0.17733-10.456 0.17733-15.639"/>
</g>
<g transform="translate(232.41 1.0183)">
<path d="m33.333 25.333c0 12.441-6.748 22.639-15.081 22.639-0.17733 0-0.472 0-1.116-0.088l-0.057333-44.756c0.584 0 0.93867-0.086667 1.1733-0.086667 8.4507 0 15.081 9.764 15.081 22.292m1.936 0.085333c0-14.171-7.6293-25.315-17.428-25.315-9.3333 0-16.905 11.491-16.905 25.404 0 13.909 7.6893 25.228 17.256 25.228 9.332 0 17.077-11.492 17.077-25.317"/>
</g>
<g transform="translate(270.21 .82027)">
<path d="m22.667 27v12.961c-0.11733 5.356 0.17733 8.2933-4.1653 8.2933-2.9947 0-3.5213-1.2093-3.5213-8.2933v-12.961c1.2307-0.086667 2.348-0.172 3.5787-0.172 1.4107 0 2.7587 0 4.108 0.172m12.5-2.7653c-6.8067 0-13.496-0.085333-20.187-0.085333v-13.827c0-3.8013 0-7.0827 3.1667-7.0827 9.392 0 13.559 13.132 14.909 13.132 0.704 0 1.1747-0.864 1.1747-1.9867 0-1.3827-0.99733-3.6293-2.5253-5.7893-3.6973-5.0107-9.0387-8.2933-13.675-8.2933-9.4493 0-17.137 11.403-17.137 25.228s7.7467 25.403 17.021 25.403c10.387 0 17.252-11.924 17.252-26.699"/>
</g>
<g transform="translate(308.91 2.1588)">
<path d="m40 0h-15.317c0.058667 4.06 0.058667 8.2947 0.11867 12.356l0.06 9.0707c0 6.0467-0.06 12.097-0.06 18.233 0 2.8493-0.70267 4.06-2.4067 4.06-1.9373 0-4.284-1.728-6.9267-5.012v-1.8133l-0.056-12.528c-0.06-4.752-0.06-9.504-0.06-14.26 0-3.3667 0-6.7373 0.116-10.107l-15.375 2.3685e-15c0 9.7627 0.17733 19.615 0.17733 29.377 0 6.3947-0.17733 12.615-0.17733 19.095h15.375v-6.2213c4.932 5.1853 9.0987 7.432 13.617 7.432 5.3413 0 9.448-3.8013 10.445-9.6773 0.41333-2.68 0.46933-3.8027 0.46933-9.1587 0-6.2213-0.056-12.615-0.056-18.836 0-4.0613 0-8.0373 0.056-12.011"/>
</g>
<g transform="translate(352.79 1.4115)">
<path d="m16 0.43098h-15.433c0 11.353 0.23467 22.61 0.23467 33.963 0 6.6384-0.116 13.181-0.116 20.01h15.315v-9.2347l-0.058667-11.93-0.057333-13.373v-10.873c0.057333-2.7896 0.116-5.7726 0.116-8.5634"/>
</g>
<g transform="translate(352.96 59.314)">
<path d="m16 5.3333c0-3.2707-2.992-5.2773-7.9173-5.2773-5.0493 0-7.572 1.8587-7.572 5.4267 0 3.344 2.6973 5.2027 7.5107 5.2027 5.2827 0 7.9787-1.784 7.9787-5.352"/>
</g>
<g transform="translate(372.54 .82547)">
<path d="m45.333 1.3333h-19.835l-9.6853 19.699c-3.696-5.5293-7.3333-11.231-10.505-17.451-1.5827-2.7667-1.8787-3.284-2.4053-3.284-0.82 0-1.7027 1.1213-1.7027 2.3307 0 0.692 0.46933 1.3827 2.172 3.888 3.9333 5.272 7.628 11.06 11.149 16.936-4.224 8.9867-8.5093 18.404-13.791 26.353h19.6c2.3507-5.8747 5.5187-11.751 8.16-17.281 3.228 5.184 6.4547 10.369 9.3907 15.9 1.1133 2.0747 1.468 2.504 1.9947 2.504 0.704 0 1.5853-1.0373 1.5853-2.1587 0-0.692-0.352-1.4693-1.6427-3.1987-3.5227-4.664-6.808-10.108-10.095-15.292 4.8093-10.023 9.74-20.305 15.609-28.945"/>
</g>
</g>
</g>
</g>
</g>
</svg>
